polaris-icons/icons/new-icons/PointOfSaleMajor.svg

<svg width="20" height="20" viewBox="0 0 20 20" fill="none" xmlns="http://www.w3.org/2000/svg">
<path d="M9.5 13.5C9.08579 13.5 8.75 13.8358 8.75 14.25C8.75 14.6642 9.08579 15 9.5 15H10.5C10.9142 15 11.25 14.6642 11.25 14.25C11.25 13.8358 10.9142 13.5 10.5 13.5H9.5Z" fill="#4A4A4A"/>
<path fill-rule="evenodd" clip-rule="evenodd" d="M4.60379 4.9068C4.76738 4.08881 5.48561 3.5 6.3198 3.5H13.6802C14.5144 3.5 15.2326 4.0888 15.3962 4.9068L15.9962 7.9068C16.2128 8.98968 15.3845 10 14.2802 10H13.0077L13.6963 11.7217C13.7001 11.7311 13.7037 11.7405 13.707 11.75H15C15.9665 11.75 16.75 12.5335 16.75 13.5V15C16.75 15.9665 15.9665 16.75 15 16.75H5C4.0335 16.75 3.25 15.9665 3.25 15V13.5C3.25 12.5335 4.0335 11.75 5 11.75H6.29294C6.2963 11.7405 6.29986 11.7311 6.30363 11.7217L6.99229 10H5.7198C4.61547 10 3.78721 8.98968 4.00379 7.9068L4.60379 4.9068ZM12.0921 11.75H7.90784L8.60784 10H11.3921L12.0921 11.75ZM6.3198 5C6.20063 5 6.09803 5.08412 6.07466 5.20097L5.47466 8.20097C5.44372 8.35567 5.56204 8.5 5.7198 8.5H14.2802C14.438 8.5 14.5563 8.35567 14.5253 8.20097L13.9253 5.20097C13.902 5.08412 13.7994 5 13.6802 5H6.3198ZM5 13.25C4.86193 13.25 4.75 13.3619 4.75 13.5V15C4.75 15.1381 4.86193 15.25 5 15.25H15C15.1381 15.25 15.25 15.1381 15.25 15V13.5C15.25 13.3619 15.1381 13.25 15 13.25H5Z" fill="#4A4A4A"/>
</svg>

<svg viewBox="0 0 20 20" xmlns="http://www.w3.org/2000/svg"><path d="M9.5 13.5a.75.75 0 0 0 0 1.5h1a.75.75 0 0 0 0-1.5h-1Z" fill="#5C5F62"/><path fill-rule="evenodd" d="M4.604 4.907a1.75 1.75 0 0 1 1.716-1.407h7.36a1.75 1.75 0 0 1 1.716 1.407l.6 3a1.75 1.75 0 0 1-1.716 2.093h-1.272l.688 1.722.011.028h1.293c.966 0 1.75.784 1.75 1.75v1.5a1.75 1.75 0 0 1-1.75 1.75h-10a1.75 1.75 0 0 1-1.75-1.75v-1.5c0-.966.784-1.75 1.75-1.75h1.293a.728.728 0 0 1 .01-.028l.69-1.722h-1.273a1.75 1.75 0 0 1-1.716-2.093l.6-3Zm7.488 6.843h-4.184l.7-1.75h2.784l.7 1.75Zm-5.772-6.75a.25.25 0 0 0-.245.201l-.6 3a.25.25 0 0 0 .245.299h8.56a.25.25 0 0 0 .245-.299l-.6-3a.25.25 0 0 0-.245-.201h-7.36Zm-1.32 8.25a.25.25 0 0 0-.25.25v1.5c0 .138.112.25.25.25h10a.25.25 0 0 0 .25-.25v-1.5a.25.25 0 0 0-.25-.25h-10Z" fill="#5C5F62"/></svg>
